style-guide/assets/wds-icons-video-small.svg

<svg xmlns="http://www.w3.org/2000/svg" xmlns:xlink="http://www.w3.org/1999/xlink" viewBox="0 0 18 18">
  <defs>
    <path id="video-a" d="M16 12.504l-4.618-1.908a.997.997 0 0 0-.938.094.998.998 0 0 0-.444.83V13H2V5h8v1.481a1 1 0 0 0 1.382.923L16 5.496v7.008zm1.556-9.335a1 1 0 0 0-.938-.093L12 4.984V4a1 1 0 0 0-1-1H1a1 1 0 0 0-1 1v10a1 1 0 0 0 1 1h10a1 1 0 0 0 1-1v-.984l4.618 1.908a.997.997 0 0 0 .938-.093A1 1 0 0 0 18 14V4c0-.334-.167-.645-.444-.831z"/>
  </defs>
  <use fill-rule="evenodd" xlink:href="#video-a"/>
</svg>

<svg xmlns="http://www.w3.org/2000/svg" xmlns:xlink="http://www.w3.org/1999/xlink" width="18" height="18" viewBox="0 0 18 18">
  <defs>
    <path id="video-a" d="M16,12.504 L11.382,10.596 C11.071,10.468 10.722,10.504 10.444,10.69 C10.167,10.875 10,11.186 10,11.52 L10,13 L2,13 L2,5 L10,5 L10,6.481 C10,6.815 10.167,7.125 10.444,7.311 C10.722,7.496 11.072,7.531 11.382,7.404 L16,5.496 L16,12.504 Z M17.556,3.169 C17.278,2.983 16.928,2.949 16.618,3.076 L12,4.984 L12,4 C12,3.447 11.553,3 11,3 L1,3 C0.447,3 0,3.447 0,4 L0,14 C0,14.553 0.447,15 1,15 L11,15 C11.553,15 12,14.553 12,14 L12,13.016 L16.618,14.924 C16.741,14.975 16.871,15 17,15 C17.195,15 17.389,14.943 17.556,14.831 C17.833,14.646 18,14.334 18,14 L18,4 C18,3.666 17.833,3.355 17.556,3.169 Z"/>
  </defs>
  <use fill-rule="evenodd" xlink:href="#video-a"/>
</svg>
